;FLAVOR:Marlin
;TIME:6465
;Filament used: 4.67826m
;Layer height: 0.21875
;MINX:24.808
;MINY:21.259
;MINZ:0.306
;MAXX:95.191
;MAXY:98.74
;MAXZ:8.804
;Generated with Cura_SteamEngine 4.6.1
M140 S60
M105
M190 S60
M104 S220
M105
M109 S220
M82 ;absolute extrusion mode
G21;(metric values)
G90;(absolute positioning)
M82;(set extruder to absolute mode)
M107;(start with the fan off)
G28;(Home the printer)
G92 E0;(Reset the extruder to 0)
G0 Z5 E5 F500;(Move up and prime the nozzle)
G0 X-1 Z0;(Move outside the printable area)
G1 Y60 E8 F500;(Draw a priming/wiping line to the rear)
G1 X-1;(Move a little closer to the print area)
G1 Y10 E16 F500;(draw more priming/wiping)
G1 E15 F250;(Small retract)
G92 E0;(Zero the extruder)
G92 E0
G92 E0
G1 F2400 E-2.5
;LAYER_COUNT:36
;LAYER:-5
M107
G0 F7200 X33.213 Y23.405 Z0.306
;TYPE:SUPPORT-INTERFACE
G1 F2400 E0
G1 F1012.5 X33.378 Y23.19 E0.02758
G1 X33.576 Y22.962 E0.05832
G1 X33.783 Y22.752 E0.08833
G1 X34.003 Y22.556 E0.11832
G1 X34.216 Y22.389 E0.14586
G1 X34.47 Y22.214 E0.17725
G1 X34.698 Y22.078 E0.20427
G1 X34.985 Y21.93 E0.23714
G1 X35.229 Y21.824 E0.26421
G1 X35.509 Y21.722 E0.29454
G1 X35.794 Y21.639 E0.32476
G1 X36.044 Y21.582 E0.35085
G1 X36.378 Y21.532 E0.38522
G1 X36.861 Y21.493 E0.43454
G1 X37.06 Y21.485 E0.45481
G1 X82.825 Y21.489 E5.11259
G1 X83.202 Y21.513 E5.15104
G1 X83.5 Y21.55 E5.1816
G1 X83.784 Y21.605 E5.21104
G1 X84.075 Y21.681 E5.24165
G1 X84.333 Y21.765 E5.26927
G1 X84.61 Y21.875 E5.2996
G1 X84.87 Y21.998 E5.32887
G1 X85.125 Y22.139 E5.35853
G1 X85.367 Y22.293 E5.38772
G1 X85.602 Y22.466 E5.41742
G1 X85.82 Y22.648 E5.44633
G1 X86.046 Y22.862 E5.478
G1 X86.246 Y23.078 E5.50796
G1 X86.406 Y23.274 E5.53371
G1 X86.74 Y23.751 E5.59298
G1 X94.237 Y35.967 E7.05174
G1 X94.316 Y36.107 E7.0681
G1 X94.494 Y36.443 E7.1068
G1 X94.602 Y36.682 E7.13349
G1 X94.713 Y36.973 E7.16519
G1 X94.796 Y37.243 E7.19394
G1 X94.86 Y37.512 E7.22208
G1 X94.91 Y37.822 E7.25404
G1 X94.958 Y38.379 E7.31094
G1 X94.966 Y38.586 E7.33202
G1 X94.966 Y93.839 E12.95545
G1 X94.962 Y93.965 E12.96828
G1 X94.938 Y94.342 E13.00673
G1 X94.901 Y94.64 E13.03729
G1 X94.846 Y94.924 E13.06673
G1 X94.77 Y95.215 E13.09734
G1 X94.686 Y95.473 E13.12496
G1 X94.575 Y95.752 E13.15552
G1 X94.453 Y96.01 E13.18456
G1 X94.31 Y96.268 E13.21458
G1 X94.158 Y96.507 E13.24341
G1 X93.985 Y96.742 E13.27311
G1 X93.804 Y96.959 E13.30187
G1 X93.59 Y97.185 E13.33355
G1 X93.385 Y97.375 E13.36199
G1 X93.155 Y97.563 E13.39223
G1 X92.927 Y97.727 E13.42081
G1 X92.668 Y97.889 E13.4519
G1 X92.429 Y98.017 E13.4795
G1 X92.154 Y98.144 E13.51033
G1 X91.893 Y98.246 E13.53885
G1 X91.59 Y98.341 E13.57116
G1 X91.369 Y98.395 E13.59432
G1 X91.013 Y98.455 E13.63106
G1 X90.459 Y98.505 E13.68768
G1 X90.237 Y98.515 E13.71029
G1 X29.71 Y98.515 E19.87049
G1 X29.207 Y98.487 E19.92176
G1 X28.909 Y98.45 E19.95232
G1 X28.625 Y98.395 E19.98177
G1 X28.334 Y98.319 E20.01238
G1 X28.074 Y98.234 E20.04022
G1 X27.797 Y98.124 E20.07055
G1 X27.538 Y98.001 E20.09973
G1 X27.281 Y97.859 E20.12961
G1 X27.042 Y97.707 E20.15844
G1 X26.795 Y97.525 E20.18967
G1 X26.594 Y97.356 E20.21639
G1 X26.361 Y97.136 E20.24901
G1 X26.174 Y96.934 E20.27702
G1 X25.982 Y96.699 E20.30791
G1 X25.822 Y96.476 E20.33584
G1 X25.66 Y96.217 E20.36693
G1 X25.532 Y95.978 E20.39453
G1 X25.405 Y95.703 E20.42536
G1 X25.303 Y95.442 E20.45388
G1 X25.208 Y95.139 E20.4862
G1 X25.152 Y94.91 E20.51019
G1 X25.094 Y94.562 E20.5461
G1 X25.044 Y94.008 E20.60271
G1 X25.034 Y93.786 E20.62533
G1 X25.038 Y38.677 E26.2341
G1 X25.062 Y38.305 E26.27204
G1 X25.099 Y38.007 E26.3026
G1 X25.154 Y37.723 E26.33204
G1 X25.232 Y37.424 E26.36349
G1 X25.312 Y37.179 E26.38972
G1 X25.425 Y36.901 E26.42026
G1 X25.621 Y36.497 E26.46597
G1 X25.704 Y36.34 E26.48404
G1 X32.989 Y23.74 E27.96533
G1 X33.068 Y23.622 E27.97978
G0 F911.2 X33.213 Y23.405
G0 F7200 X33.6 Y22.937
G1 F1012.5 X33.6 Y98.515 E35.67181
G0 F7200 X32 Y98.515
G1 F1012.5 X32 Y25.45 E43.10808
G0 F7200 X30.4 Y28.217
G1 F1012.5 X30.4 Y98.515 E50.26273
G0 F7200 X28.8 Y98.428
G1 F1012.5 X28.8 Y30.985 E57.12681
G0 F7200 X27.2 Y33.752
G1 F1012.5 X27.2 Y97.807 E63.64607
G0 F7200 X25.6 Y96.104
G1 F1012.5 X25.6 Y36.54 E69.70825
G0 F7200 X35.2 Y21.836
G1 F1012.5 X35.2 Y98.515 E77.51234
G0 F7200 X36.8 Y98.515
G1 F1012.5 X36.8 Y21.497 E85.35092
G0 F7200 X38.4 Y21.486
G1 F1012.5 X38.4 Y98.515 E93.19063
G0 F7200 X40 Y98.515
G1 F1012.5 X40 Y21.486 E101.03033
G0 F7200 X41.6 Y21.486
G1 F1012.5 X41.6 Y98.515 E108.87004
G0 F7200 X43.2 Y98.515
G1 F1012.5 X43.2 Y21.486 E116.70974
G0 F7200 X44.8 Y21.486
G1 F1012.5 X44.8 Y98.515 E124.54945
G0 F7200 X46.4 Y98.515
G1 F1012.5 X46.4 Y21.486 E132.38915
G0 F7200 X48 Y21.486
G1 F1012.5 X48 Y98.515 E140.22885
G0 F7200 X49.6 Y98.515
G1 F1012.5 X49.6 Y21.487 E148.06846
G0 F7200 X51.2 Y21.487
G1 F1012.5 X51.2 Y98.515 E155.90806
G0 F7200 X52.8 Y98.515
G1 F1012.5 X52.8 Y21.487 E163.74766
G0 F7200 X54.4 Y21.487
G1 F1012.5 X54.4 Y98.515 E171.58727
G0 F7200 X56 Y98.515
G1 F1012.5 X56 Y21.487 E179.42687
G0 F7200 X57.6 Y21.487
G1 F1012.5 X57.6 Y98.515 E187.26647
G0 F7200 X59.2 Y98.515
G1 F1012.5 X59.2 Y21.487 E195.10607
G0 F7200 X60.8 Y21.488
G1 F1012.5 X60.8 Y98.515 E202.94557
G0 F7200 X62.4 Y98.515
G1 F1012.5 X62.4 Y21.488 E210.78508
G0 F7200 X64 Y21.488
G1 F1012.5 X64 Y98.515 E218.62458
G0 F7200 X65.6 Y98.515
G1 F1012.5 X65.6 Y21.488 E226.46408
G0 F7200 X67.2 Y21.488
G1 F1012.5 X67.2 Y98.515 E234.30358
G0 F7200 X68.8 Y98.515
G1 F1012.5 X68.8 Y21.488 E242.14308
G0 F7200 X70.4 Y21.488
G1 F1012.5 X70.4 Y98.515 E249.98258
G0 F7200 X72 Y98.515
G1 F1012.5 X72 Y21.489 E257.82198
G0 F7200 X73.6 Y21.489
G1 F1012.5 X73.6 Y98.515 E265.66138
G0 F7200 X75.2 Y98.515
G1 F1012.5 X75.2 Y21.489 E273.50078
G0 F7200 X76.8 Y21.489
G1 F1012.5 X76.8 Y98.515 E281.34018
G0 F7200 X78.4 Y98.515
G1 F1012.5 X78.4 Y21.489 E289.17958
G0 F7200 X80 Y21.489
G1 F1012.5 X80 Y98.515 E297.01898
G0 F7200 X81.6 Y98.515
G1 F1012.5 X81.6 Y21.489 E304.85837
G0 F7200 X83.2 Y21.513
G1 F1012.5 X83.2 Y98.515 E312.69533
G0 F7200 X84.8 Y98.515
G1 F1012.5 X84.8 Y21.965 E320.48629
G0 F7200 X86.4 Y23.267
G1 F1012.5 X86.4 Y98.515 E328.14473
G0 F7200 X88 Y98.515
G1 F1012.5 X88 Y25.805 E335.54486
G0 F7200 X89.6 Y28.412
G1 F1012.5 X89.6 Y98.515 E342.67966
G0 F7200 X91.2 Y98.424
G1 F1012.5 X91.2 Y31.019 E349.53988
G0 F7200 X92.8 Y33.626
G1 F1012.5 X92.8 Y97.807 E356.07196
G0 F7200 X94.4 Y96.106
M104 S215
G1 F1012.5 X94.4 Y36.266 E362.16224
G0 F600 X94.4 Y36.266 Z0.525
G0 F7200 X87.879 Y25.513
;TIME_ELAPSED:241.714639
;LAYER:-4
M140 S55
;TYPE:SUPPORT
G1 F1012.5 X83.969 Y21.602 E362.51471
G1 X83.789 Y21.555 E362.52657
G1 X83.499 Y21.498 E362.5454
G1 X83.208 Y21.462 E362.56409
G1 X82.826 Y21.439 E362.58848
G1 X82.533 Y21.439 E362.60716
G1 X89.902 Y28.808 E363.27136
G1 X91.923 Y32.102 E363.51767
G1 X81.26 Y21.439 E364.47877
G1 X79.987 Y21.439 E364.5599
G1 X93.946 Y35.397 E365.81805
G1 X94.28 Y35.942 E365.85879
G1 X94.364 Y36.092 E365.86974
G1 X94.535 Y36.415 E365.89304
G1 X94.651 Y36.671 E365.91095
G1 X94.753 Y36.942 E365.92941
G1 X94.843 Y37.231 E365.9487
G1 X94.908 Y37.504 E365.96658
G1 X94.933 Y37.657 E365.97646
G1 X78.715 Y21.439 E367.43827
G1 X77.442 Y21.439 E367.5194
G1 X95.015 Y39.012 E369.10333
G1 X95.015 Y40.285 E369.18447
G1 X76.168 Y21.438 E370.88323
G1 X74.896 Y21.438 E370.9643
G1 X95.015 Y41.558 E372.77777
G1 X95.015 Y42.83 E372.85884
G1 X73.623 Y21.438 E374.78699
G1 X72.35 Y21.438 E374.86813
G1 X95.015 Y44.103 E376.91103
G1 X95.015 Y45.376 E376.99216
G1 X71.077 Y21.438 E379.1498
G1 X69.804 Y21.438 E379.23094
G1 X95.015 Y46.649 E381.50332
G1 X95.015 Y47.922 E381.58445
G1 X68.531 Y21.438 E383.97157
G1 X67.258 Y21.438 E384.05271
G1 X95.015 Y49.194 E386.55453
G1 X95.015 Y50.467 E386.63566
G1 X65.985 Y21.438 E389.25222
G1 X64.712 Y21.438 E389.33336
G1 X95.015 Y51.74 E392.06466
G1 X95.015 Y53.013 E392.14579
G1 X63.44 Y21.438 E394.99179
G1 X62.166 Y21.437 E395.07299
G1 X95.015 Y54.286 E398.03382
G1 X95.015 Y55.558 E398.11489
G1 X60.893 Y21.437 E401.19041
G1 X59.621 Y21.437 E401.27148
G1 X95.015 Y56.831 E404.46171
G1 X95.015 Y58.104 E404.54284
G1 X58.348 Y21.437 E407.8478
G1 X57.075 Y21.437 E407.92894
G1 X95.015 Y59.377 E411.34864
G1 X95.015 Y60.649 E411.42971
G1 X55.802 Y21.436 E414.96416
G1 X54.529 Y21.436 E415.04529
G1 X95.015 Y61.922 E418.69448
G1 X95.015 Y63.195 E418.77561
G1 X53.256 Y21.436 E422.53954
G1 X51.983 Y21.436 E422.62067
G1 X95.015 Y64.468 E426.49934
G1 X95.015 Y65.741 E426.58048
G1 X50.71 Y21.436 E430.57389
G1 X49.437 Y21.435 E430.65502
G1 X95.015 Y67.013 E434.76317
G1 X95.015 Y68.286 E434.84431
G1 X48.164 Y21.435 E439.0672
G1 X46.891 Y21.435 E439.14833
G1 X95.015 Y69.559 E443.48597
G1 X95.015 Y70.832 E443.5671
G1 X45.618 Y21.435 E448.01948
G1 X44.346 Y21.435 E448.10055
G1 X95.015 Y72.105 E452.66762
G1 X95.015 Y73.377 E452.74869
G1 X43.072 Y21.435 E457.4305
G1 X41.799 Y21.435 E457.51164
G1 X95.015 Y74.65 E462.30819
G1 X95.015 Y75.923 E462.38932
G1 X40.527 Y21.435 E467.30057
G1 X39.254 Y21.435 E467.38171
G1 X95.015 Y77.196 E472.4077
G1 X95.015 Y78.469 E472.48883
G1 X37.981 Y21.435 E477.62957
G1 X37.057 Y21.434 E477.68846
G1 X36.853 Y21.443 E477.70147
G1 X36.727 Y21.453 E477.70953
G1 X95.015 Y79.741 E482.96329
G1 X95.015 Y81.014 E483.04442
G1 X35.633 Y21.633 E488.39675
G1 X35.493 Y21.673 E488.40603
G1 X35.207 Y21.778 E488.42544
G1 X34.957 Y21.887 E488.44283
G1 X34.731 Y22.003 E488.45902
G1 X95.015 Y82.287 E493.89269
G1 X95.015 Y83.56 E493.97382
G1 X33.972 Y22.517 E499.4759
G1 X33.963 Y22.522 E499.47656
G1 X33.749 Y22.714 E499.49488
G1 X33.537 Y22.929 E499.51413
G1 X33.341 Y23.153 E499.5331
G0 F7200 X33.338 Y23.156
G1 F1012.5 X95.015 Y84.833 E505.09232
G1 X95.015 Y86.105 E505.1734
G1 X32.823 Y23.914 E510.779
G1 X32.357 Y24.721 E510.83839
G1 X95.015 Y87.378 E516.48599
G1 X95.015 Y88.651 E516.56713
G1 X31.891 Y25.527 E522.25678
G1 X31.425 Y26.334 E522.31617
G1 X95.015 Y89.924 E528.04783
G1 X95.015 Y91.196 E528.1289
G1 X30.959 Y27.141 E533.90251
G1 X30.493 Y27.948 E533.9619
G1 X95.015 Y92.469 E539.77752
G1 X95.015 Y93.742 E539.85865
G1 X30.027 Y28.755 E545.71627
G1 X29.561 Y29.561 E545.77561
G1 X94.901 Y94.901 E551.665
G1 X94.895 Y94.929 E551.66682
G1 X94.818 Y95.226 E551.68638
G1 X94.724 Y95.511 E551.70551
G1 X94.627 Y95.758 E551.72242
G1 X94.581 Y95.854 E551.7292
G1 X29.095 Y30.368 E557.63175
G1 X28.629 Y31.174 E557.69109
G1 X94.11 Y96.655 E563.59319
G1 X94.017 Y96.78 E563.60312
G1 X93.836 Y96.997 E563.62113
G1 X93.64 Y97.205 E563.63934
G1 X93.508 Y97.326 E563.65076
G1 X28.163 Y31.981 E569.5406
G1 X27.697 Y32.788 E569.59999
G1 X92.783 Y97.874 E575.46649
G1 X92.689 Y97.932 E575.47353
G1 X92.461 Y98.055 E575.49004
G1 X92.164 Y98.194 E575.51094
G1 X91.922 Y98.286 E575.52744
G1 X27.231 Y33.595 E581.35833
G1 X26.765 Y34.402 E581.41772
G1 X90.878 Y98.514 E587.19647
G1 X90.45 Y98.554 E587.22387
G1 X90.238 Y98.564 E587.2374
G1 X89.654 Y98.564 E587.27462
G1 X26.298 Y35.208 E592.98518
G1 X25.832 Y36.015 E593.04457
G1 X88.381 Y98.564 E598.6824
G1 X87.109 Y98.564 E598.76347
G1 X25.393 Y36.848 E604.32621
G1 X25.379 Y36.878 E604.32832
G1 X25.265 Y37.159 E604.34765
G1 X25.184 Y37.411 E604.36452
G1 X25.104 Y37.716 E604.38462
G1 X25.085 Y37.813 E604.39092
G1 X85.836 Y98.564 E609.86668
G1 X84.563 Y98.564 E609.94781
G1 X24.987 Y38.988 E615.31767
G1 X24.987 Y40.261 E615.3988
G1 X83.29 Y98.564 E620.65392
G1 X82.018 Y98.564 E620.73499
G1 X24.987 Y41.534 E625.8754
G1 X24.987 Y42.806 E625.95647
G1 X80.745 Y98.564 E630.98219
G1 X79.472 Y98.564 E631.06333
G1 X24.987 Y44.079 E635.97431
G1 X24.987 Y45.352 E636.05544
G1 X78.199 Y98.564 E640.85168
G1 X76.926 Y98.564 E640.93282
G1 X24.987 Y46.625 E645.61431
G1 X24.987 Y47.897 E645.69538
G1 X75.654 Y98.564 E650.26223
G1 X74.381 Y98.564 E650.34336
G1 X24.987 Y49.17 E654.79547
G1 X24.987 Y50.442 E654.87654
G1 X73.108 Y98.564 E659.21395
G1 X71.835 Y98.564 E659.29508
G1 X24.987 Y51.715 E663.51775
G1 X24.987 Y52.988 E663.59888
G1 X70.562 Y98.564 E667.70681
G1 X69.29 Y98.564 E667.78788
G1 X24.987 Y54.261 E671.78111
G1 X24.987 Y55.534 E671.86224
G1 X68.017 Y98.564 E675.74073
G1 X66.744 Y98.564 E675.82187
G1 X24.987 Y56.806 E679.58566
G1 X24.986 Y58.078 E679.66673
G1 X65.471 Y98.564 E683.31587
G1 X64.198 Y98.564 E683.39701
G1 X24.986 Y59.351 E686.93141
G1 X24.986 Y60.624 E687.01254
G1 X62.926 Y98.564 E690.43224
G1 X61.653 Y98.564 E690.51338
G1 X24.986 Y61.897 E693.81834
G1 X24.986 Y63.17 E693.89947
G1 X60.38 Y98.564 E697.0897
G1 X59.107 Y98.564 E697.17083
G1 X24.986 Y64.442 E700.24636
G1 X24.986 Y65.715 E700.32749
G1 X57.834 Y98.564 E703.28827
G1 X56.562 Y98.564 E703.36934
G1 X24.985 Y66.987 E706.21552
G1 X24.985 Y68.26 E706.29666
G1 X55.289 Y98.564 E709.02809
G1 X54.016 Y98.564 E709.10923
G1 X24.985 Y69.533 E711.72592
G1 X24.985 Y70.806 E711.80706
G1 X52.743 Y98.564 E714.30901
G1 X51.471 Y98.564 E714.39008
G1 X24.985 Y72.078 E716.77739
G1 X24.985 Y73.351 E716.85852
G1 X50.198 Y98.564 E719.13108
G1 X48.925 Y98.564 E719.21222
G1 X24.985 Y74.624 E721.37004
G1 X24.984 Y75.896 E721.45111
G1 X47.652 Y98.564 E723.49428
G1 X46.379 Y98.564 E723.57541
G1 X24.984 Y77.169 E725.50384
G1 X24.984 Y78.442 E725.58497
G1 X45.107 Y98.564 E727.3987
G1 X43.834 Y98.564 E727.47984
G1 X24.984 Y79.714 E729.17887
G1 X24.984 Y80.987 E729.26001
G1 X42.561 Y98.564 E730.8443
G1 X41.288 Y98.564 E730.92544
G1 X24.984 Y82.26 E732.39499
G1 X24.984 Y83.533 E732.47613
G1 X40.015 Y98.564 E733.83094
G1 X38.743 Y98.564 E733.91201
G1 X24.984 Y84.805 E735.15217
G1 X24.984 Y86.078 E735.2333
G1 X37.47 Y98.564 E736.35872
G1 X36.197 Y98.564 E736.43986
G1 X24.984 Y87.351 E737.45054
G1 X24.984 Y88.623 E737.53161
G1 X34.924 Y98.564 E738.42759
G1 X33.651 Y98.564 E738.50872
G1 X24.984 Y89.896 E739.28996
G1 X24.984 Y91.169 E739.3711
G1 X32.379 Y98.564 E740.03764
G1 X31.106 Y98.564 E740.11878
G1 X24.984 Y92.442 E740.67058
G1 X24.984 Y93.714 E740.75165
G1 X29.833 Y98.564 E741.18876
G1 X29.707 Y98.564 E741.19679
G1 X29.581 Y98.56 E741.20482
G1 X29.198 Y98.536 E741.22928
G1 X28.909 Y98.499 E741.24785
G1 X28.618 Y98.444 E741.26673
G1 X28.376 Y98.38 E741.28268
G1 X25.164 Y95.168 E741.57219
G0 F7200 X25.255 Y95.458
G1 F1012.5 X25.353 Y95.709 E741.58937
G1 X25.491 Y96.006 E741.61024
G1 X25.615 Y96.238 E741.62701
G1 X25.783 Y96.506 E741.64717
G1 X25.942 Y96.727 E741.66452
G1 X26.133 Y96.962 E741.68382
G1 X26.343 Y97.188 E741.70348
G1 X26.544 Y97.377 E741.72107
G1 X26.768 Y97.566 E741.73974
G1 X27.012 Y97.746 E741.75907
G1 X27.258 Y97.902 E741.77764
G1 X27.508 Y98.041 E741.79587
G1 X27.79 Y98.175 E741.81577
G1 X28.036 Y98.273 E741.83264
G1 X28.321 Y98.366 E741.85175
G1 X28.376 Y98.38 E741.85537
G0 F7200 X86.781 Y23.722
G1 F1012.5 X86.459 Y23.262 E741.89115
G1 X86.272 Y23.033 E741.91
G1 X86.071 Y22.816 E741.92885
G1 X85.86 Y22.616 E741.94738
G1 X85.639 Y22.432 E741.96571
G1 X85.395 Y22.253 E741.98499
G1 X85.147 Y22.094 E742.00377
G1 X84.9 Y21.957 E742.02177
G1 X84.616 Y21.822 E742.04181
G1 X84.371 Y21.725 E742.05861
G1 X84.086 Y21.633 E742.07769
G1 X83.969 Y21.602 E742.08541
G0 F600 X83.969 Y21.602 Z0.744
G0 F7200 X83.615 Y21.35
;TIME_ELAPSED:596.414439
;LAYER:-3
;TYPE:SUPPORT-INTERFACE
G1 F1350 X36.064 Y21.35 E743.60073
G1 X36.357 Y21.306 E743.61018
G1 X37.051 Y21.259 E743.63234
G1 X82.706 Y21.259 E745.08725
G1 X83.225 Y21.289 E745.10381
G0 F7200 X95.135 Y37.8
G1 F1350 X24.914 Y37.8 E747.34157
G1 X24.934 Y37.669 E747.3458
G1 X24.998 Y37.45 E747.35307
G1 X95.077 Y37.45 E749.5863
G1 X94.981 Y37.1 E749.59786
G1 X25.101 Y37.1 E751.82476
G1 X25.226 Y36.792 E751.83535
G1 X25.247 Y36.75 E751.83685
G1 X94.865 Y36.75 E754.05539
G1 X94.72 Y36.4 E754.06746
G1 X25.422 Y36.4 E756.27581
G1 X25.501 Y36.241 E756.28146
G1 X25.612 Y36.05 E756.2885
G1 X94.539 Y36.05 E758.48503
G1 X94.436 Y35.861 E758.49188
G1 X94.338 Y35.7 E758.49789
G1 X25.814 Y35.7 E760.68157
G1 X26.016 Y35.35 E760.69445
G1 X94.123 Y35.35 E762.86484
G1 X93.908 Y35 E762.87793
G1 X26.218 Y35 E765.03503
G1 X26.421 Y34.65 E765.04792
G1 X93.693 Y34.65 E767.19171
G1 X93.478 Y34.3 E767.2048
G1 X26.623 Y34.3 E769.33529
G1 X26.825 Y33.95 E769.34817
G1 X93.263 Y33.95 E771.46537
G1 X93.048 Y33.6 E771.47846
G1 X27.027 Y33.6 E773.58238
G1 X27.23 Y33.25 E773.59527
