;FLAVOR:Marlin
;TIME:6599
;Filament used: 4.76864m
;Layer height: 0.21875
;MINX:21.259
;MINY:24.808
;MINZ:0.306
;MAXX:98.74
;MAXY:95.191
;MAXZ:8.804
;Generated with Cura_SteamEngine 4.6.1
M140 S60
M105
M190 S60
M104 S220
M105
M109 S220
M82 ;absolute extrusion mode
G21;(metric values)
G90;(absolute positioning)
M82;(set extruder to absolute mode)
M107;(start with the fan off)
G28;(Home the printer)
G92 E0;(Reset the extruder to 0)
G0 Z5 E5 F500;(Move up and prime the nozzle)
G0 X-1 Z0;(Move outside the printable area)
G1 Y60 E8 F500;(Draw a priming/wiping line to the rear)
G1 X-1;(Move a little closer to the print area)
G1 Y10 E16 F500;(draw more priming/wiping)
G1 E15 F250;(Small retract)
G92 E0;(Zero the extruder)
G92 E0
G92 E0
G1 F2400 E-2.5
;LAYER_COUNT:36
;LAYER:-5
M107
G0 F7200 X23.066 Y26.174 Z0.306
;TYPE:SUPPORT-INTERFACE
G1 F2400 E0
G1 F1012.5 X23.296 Y25.986 E0.03023
G1 X23.524 Y25.822 E0.05882
G1 X23.783 Y25.66 E0.08991
G1 X24.022 Y25.532 E0.1175
G1 X24.297 Y25.405 E0.14833
G1 X24.558 Y25.303 E0.17685
G1 X24.861 Y25.208 E0.20917
G1 X25.082 Y25.154 E0.23232
G1 X25.438 Y25.094 E0.26907
G1 X25.992 Y25.044 E0.32568
G1 X26.214 Y25.034 E0.3483
G1 X93.839 Y25.034 E7.2309
G1 X93.965 Y25.038 E7.24373
G1 X94.342 Y25.062 E7.28218
G1 X94.64 Y25.099 E7.31274
G1 X94.924 Y25.154 E7.34218
G1 X95.215 Y25.23 E7.37279
G1 X95.473 Y25.314 E7.40041
G1 X95.752 Y25.425 E7.43097
G1 X96.01 Y25.547 E7.46001
G1 X96.268 Y25.69 E7.49003
G1 X96.507 Y25.842 E7.51886
G1 X96.754 Y26.024 E7.55009
G1 X96.955 Y26.193 E7.57682
G1 X97.188 Y26.413 E7.60943
G1 X97.375 Y26.615 E7.63745
G1 X97.563 Y26.845 E7.66768
G1 X97.727 Y27.073 E7.69626
G1 X97.889 Y27.332 E7.72735
G1 X98.017 Y27.571 E7.75495
G1 X98.144 Y27.846 E7.78578
G1 X98.246 Y28.107 E7.8143
G1 X98.341 Y28.41 E7.84662
G1 X98.395 Y28.631 E7.86977
G1 X98.455 Y28.987 E7.90651
G1 X98.505 Y29.541 E7.96313
G1 X98.515 Y29.763 E7.98574
G1 X98.515 Y90.29 E14.14594
G1 X98.511 Y90.416 E14.15877
G1 X98.487 Y90.793 E14.19722
G1 X98.45 Y91.091 E14.22778
G1 X98.395 Y91.375 E14.25722
G1 X98.319 Y91.666 E14.28783
G1 X98.235 Y91.924 E14.31545
G1 X98.124 Y92.203 E14.34601
G1 X98.002 Y92.461 E14.37505
G1 X97.859 Y92.719 E14.40507
G1 X97.707 Y92.958 E14.4339
G1 X97.534 Y93.193 E14.4636
G1 X97.353 Y93.41 E14.49236
G1 X97.139 Y93.636 E14.52404
G1 X96.934 Y93.826 E14.55248
G1 X96.704 Y94.014 E14.58272
G1 X96.476 Y94.178 E14.6113
G1 X96.217 Y94.34 E14.64239
G1 X95.978 Y94.468 E14.66999
G1 X95.703 Y94.595 E14.70082
G1 X95.442 Y94.697 E14.72934
G1 X95.139 Y94.792 E14.76165
G1 X94.918 Y94.846 E14.78481
G1 X94.562 Y94.906 E14.82155
G1 X94.008 Y94.956 E14.87816
G1 X93.786 Y94.966 E14.90078
G1 X26.161 Y94.966 E21.78338
G1 X25.658 Y94.938 E21.83466
G1 X25.36 Y94.901 E21.86522
G1 X25.076 Y94.846 E21.89466
G1 X24.785 Y94.77 E21.92527
G1 X24.525 Y94.685 E21.95311
G1 X24.248 Y94.575 E21.98344
G1 X23.989 Y94.452 E22.01263
G1 X23.732 Y94.31 E22.04251
G1 X23.493 Y94.158 E22.07134
G1 X23.246 Y93.976 E22.10256
G1 X23.045 Y93.807 E22.12929
G1 X22.812 Y93.587 E22.1619
G1 X22.625 Y93.385 E22.18992
G1 X22.433 Y93.15 E22.22081
G1 X22.273 Y92.927 E22.24874
G1 X22.111 Y92.668 E22.27983
G1 X21.983 Y92.429 E22.30742
G1 X21.856 Y92.154 E22.33825
G1 X21.754 Y91.893 E22.36677
G1 X21.659 Y91.59 E22.39909
G1 X21.603 Y91.361 E22.42308
G1 X21.545 Y91.013 E22.45899
G1 X21.495 Y90.459 E22.5156
G1 X21.485 Y90.237 E22.53822
G1 X21.485 Y29.71 E28.69842
G1 X21.489 Y29.584 E28.71125
G1 X21.513 Y29.207 E28.7497
G1 X21.55 Y28.909 E28.78026
G1 X21.605 Y28.625 E28.8097
G1 X21.681 Y28.334 E28.84031
G1 X21.765 Y28.076 E28.86792
G1 X21.876 Y27.797 E28.89848
G1 X21.998 Y27.539 E28.92753
G1 X22.144 Y27.276 E28.95815
G1 X22.293 Y27.042 E28.98638
G1 X22.475 Y26.795 E29.01761
G1 X22.644 Y26.594 E29.04433
G1 X22.864 Y26.361 E29.07695
G1 X22.875 Y26.351 E29.07846
G0 F911.2 X23.066 Y26.174
G0 F7200 X22.4 Y26.896
G1 F1012.5 X22.4 Y93.104 E35.81685
G0 F7200 X24 Y94.457
G1 F1012.5 X24 Y25.543 E42.83064
G0 F7200 X25.6 Y25.079
G1 F1012.5 X25.6 Y94.93 E49.93979
G0 F7200 X27.2 Y94.966
G1 F1012.5 X27.2 Y25.034 E57.05719
G0 F7200 X28.8 Y25.034
G1 F1012.5 X28.8 Y94.966 E64.17459
G0 F7200 X30.4 Y94.966
G1 F1012.5 X30.4 Y25.034 E71.29199
G0 F7200 X32 Y25.034
G1 F1012.5 X32 Y94.966 E78.40939
G0 F7200 X33.6 Y94.966
G1 F1012.5 X33.6 Y25.034 E85.52679
G0 F7200 X35.2 Y25.034
G1 F1012.5 X35.2 Y94.966 E92.6442
G0 F7200 X36.8 Y94.966
G1 F1012.5 X36.8 Y25.034 E99.7616
G0 F7200 X38.4 Y25.034
G1 F1012.5 X38.4 Y94.966 E106.879
G0 F7200 X40 Y94.966
G1 F1012.5 X40 Y25.034 E113.9964
G0 F7200 X41.6 Y25.034
G1 F1012.5 X41.6 Y94.966 E121.1138
G0 F7200 X43.2 Y94.966
G1 F1012.5 X43.2 Y25.034 E128.2312
G0 F7200 X44.8 Y25.034
G1 F1012.5 X44.8 Y94.966 E135.3486
G0 F7200 X46.4 Y94.966
G1 F1012.5 X46.4 Y25.034 E142.466
G0 F7200 X48 Y25.034
G1 F1012.5 X48 Y94.966 E149.5834
G0 F7200 X49.6 Y94.966
G1 F1012.5 X49.6 Y25.034 E156.7008
G0 F7200 X51.2 Y25.034
G1 F1012.5 X51.2 Y94.966 E163.8182
G0 F7200 X52.8 Y94.966
G1 F1012.5 X52.8 Y25.034 E170.9356
G0 F7200 X54.4 Y25.034
G1 F1012.5 X54.4 Y94.966 E178.053
G0 F7200 X56 Y94.966
G1 F1012.5 X56 Y25.034 E185.1704
G0 F7200 X57.6 Y25.034
G1 F1012.5 X57.6 Y94.966 E192.2878
G0 F7200 X59.2 Y94.966
G1 F1012.5 X59.2 Y25.034 E199.4052
G0 F7200 X60.8 Y25.034
G1 F1012.5 X60.8 Y94.966 E206.5226
G0 F7200 X62.4 Y94.966
G1 F1012.5 X62.4 Y25.034 E213.64
G0 F7200 X64 Y25.034
G1 F1012.5 X64 Y94.966 E220.7574
G0 F7200 X65.6 Y94.966
G1 F1012.5 X65.6 Y25.034 E227.8748
G0 F7200 X67.2 Y25.034
G1 F1012.5 X67.2 Y94.966 E234.9922
G0 F7200 X68.8 Y94.966
G1 F1012.5 X68.8 Y25.034 E242.1096
G0 F7200 X70.4 Y25.034
G1 F1012.5 X70.4 Y94.966 E249.227
G0 F7200 X72 Y94.966
G1 F1012.5 X72 Y25.034 E256.3444
G0 F7200 X73.6 Y25.034
G1 F1012.5 X73.6 Y94.966 E263.4618
G0 F7200 X75.2 Y94.966
G1 F1012.5 X75.2 Y25.034 E270.5792
G0 F7200 X76.8 Y25.034
G1 F1012.5 X76.8 Y94.966 E277.6966
G0 F7200 X78.4 Y94.966
G1 F1012.5 X78.4 Y25.034 E284.814
G0 F7200 X80 Y25.034
G1 F1012.5 X80 Y94.966 E291.9314
G0 F7200 X81.6 Y94.966
G1 F1012.5 X81.6 Y25.034 E299.0488
G0 F7200 X83.2 Y25.034
G1 F1012.5 X83.2 Y94.966 E306.1662
G0 F7200 X84.8 Y94.966
G1 F1012.5 X84.8 Y25.034 E313.2836
G0 F7200 X86.4 Y25.034
G1 F1012.5 X86.4 Y94.966 E320.401
G0 F7200 X88 Y94.966
G1 F1012.5 X88 Y25.034 E327.5184
G0 F7200 X89.6 Y25.034
G1 F1012.5 X89.6 Y94.966 E334.6358
G0 F7200 X91.2 Y94.966
G1 F1012.5 X91.2 Y25.034 E341.7532
G0 F7200 X92.8 Y25.034
G1 F1012.5 X92.8 Y94.966 E348.8706
G0 F7200 X94.4 Y94.921
G1 F1012.5 X94.4 Y25.07 E355.97976
G0 F7200 X96 Y25.543
G1 F1012.5 X96 Y94.457 E362.99355
G0 F7200 X97.6 Y93.104
M104 S215
G1 F1012.5 X97.6 Y26.897 E369.73183
G0 F600 X97.6 Y26.897 Z0.525
G0 F7200 X98.292 Y28.089
;TIME_ELAPSED:245.915585
;LAYER:-4
M140 S55
;TYPE:SUPPORT
G1 F1012.5 X98.195 Y27.839 E369.74892
G1 X98.055 Y27.538 E369.77008
G1 X97.932 Y27.309 E369.78665
G1 X97.765 Y27.041 E369.80678
G1 X97.606 Y26.82 E369.82413
G1 X97.413 Y26.585 E369.84351
G1 X97.205 Y26.36 E369.86304
G1 X97.003 Y26.17 E369.88071
G1 X96.78 Y25.981 E369.89934
G1 X96.535 Y25.802 E369.91868
G1 X96.29 Y25.646 E369.93719
G1 X96.039 Y25.506 E369.95551
G1 X95.758 Y25.373 E369.97533
G1 X95.511 Y25.274 E369.99229
G1 X95.226 Y25.182 E370.01137
G1 X95.171 Y25.168 E370.01499
G1 X98.384 Y28.38 E370.30455
G0 F7200 X95.171 Y25.168
G1 F1012.5 X94.929 Y25.103 E370.32052
G1 X94.639 Y25.048 E370.33933
G1 X94.349 Y25.011 E370.35796
G1 X93.966 Y24.987 E370.38242
G1 X93.84 Y24.983 E370.39046
G1 X93.714 Y24.984 E370.39849
G1 X98.564 Y29.833 E370.83559
G1 X98.564 Y31.106 E370.91673
G1 X92.442 Y24.984 E371.46853
G1 X91.169 Y24.984 E371.54967
G1 X98.564 Y32.379 E372.21621
G1 X98.564 Y33.651 E372.29728
G1 X89.896 Y24.984 E373.07852
G1 X88.623 Y24.984 E373.15966
G1 X98.564 Y34.924 E374.05564
G1 X98.564 Y36.197 E374.13677
G1 X87.351 Y24.984 E375.14745
G1 X86.078 Y24.984 E375.22859
G1 X98.564 Y37.47 E376.35401
G1 X98.564 Y38.743 E376.43514
G1 X84.805 Y24.984 E377.6753
G1 X83.532 Y24.984 E377.75644
G1 X98.564 Y40.015 E379.11129
G1 X98.564 Y41.288 E379.19243
G1 X82.259 Y24.984 E380.66203
G1 X80.987 Y24.984 E380.7431
G1 X98.564 Y42.561 E382.32739
G1 X98.564 Y43.834 E382.40853
G1 X79.714 Y24.984 E384.10756
G1 X78.441 Y24.984 E384.1887
G1 X98.564 Y45.107 E386.00247
G1 X98.564 Y46.379 E386.08354
G1 X77.168 Y24.984 E388.01202
G1 X75.895 Y24.984 E388.09315
G1 X98.564 Y47.652 E390.13636
G1 X98.564 Y48.925 E390.2175
G1 X74.623 Y24.984 E392.37541
G1 X73.35 Y24.984 E392.45654
G1 X98.564 Y50.198 E394.7292
G1 X98.564 Y51.471 E394.81033
G1 X72.077 Y24.984 E397.19772
G1 X70.804 Y24.984 E397.27886
G1 X98.564 Y52.743 E399.78095
G1 X98.564 Y54.016 E399.86208
G1 X69.531 Y24.984 E402.47891
G1 X68.259 Y24.984 E402.55998
G1 X98.564 Y55.289 E405.29151
G1 X98.564 Y56.562 E405.37264
G1 X66.986 Y24.984 E408.21891
G1 X65.713 Y24.984 E408.30005
G1 X98.564 Y57.834 E411.26101
G1 X98.564 Y59.107 E411.34214
G1 X64.44 Y24.984 E414.41785
G1 X63.167 Y24.984 E414.49898
G1 X98.564 Y60.38 E417.68943
G1 X98.564 Y61.653 E417.77057
G1 X61.895 Y24.984 E421.07571
G1 X60.622 Y24.984 E421.15684
G1 X98.564 Y62.926 E424.57673
G1 X98.564 Y64.198 E424.6578
G1 X59.349 Y24.984 E428.19238
G1 X58.076 Y24.984 E428.27351
G1 X98.564 Y65.471 E431.92283
G1 X98.564 Y66.744 E432.00397
G1 X56.804 Y24.984 E435.76799
G1 X55.531 Y24.984 E435.84912
G1 X98.564 Y68.017 E439.72788
G1 X98.564 Y69.29 E439.80901
G1 X54.258 Y24.984 E443.80251
G1 X52.985 Y24.984 E443.88365
G1 X98.564 Y70.562 E447.99184
G1 X98.564 Y71.835 E448.07298
G1 X51.712 Y24.984 E452.29592
G1 X50.44 Y24.984 E452.37699
G1 X98.564 Y73.108 E456.71462
G1 X98.564 Y74.381 E456.79576
G1 X49.167 Y24.984 E461.24813
G1 X47.894 Y24.984 E461.32926
G1 X98.564 Y75.654 E465.89638
G1 X98.564 Y76.926 E465.97745
G1 X46.621 Y24.984 E470.65926
G1 X45.348 Y24.984 E470.7404
G1 X98.564 Y78.199 E475.53695
G1 X98.564 Y79.472 E475.61809
G1 X44.076 Y24.984 E480.52934
G1 X42.803 Y24.984 E480.61047
G1 X98.564 Y80.745 E485.63646
G1 X98.564 Y82.018 E485.7176
G1 X41.53 Y24.984 E490.85833
G1 X40.257 Y24.984 E490.93946
G1 X98.564 Y83.29 E496.19489
G1 X98.564 Y84.563 E496.27603
G1 X38.984 Y24.984 E501.6462
G1 X37.712 Y24.984 E501.72727
G1 X98.564 Y85.836 E507.21213
G1 X98.564 Y87.109 E507.29327
G1 X36.439 Y24.984 E512.89287
G1 X35.166 Y24.984 E512.97401
G1 X98.564 Y88.381 E518.68831
G1 X98.564 Y89.654 E518.76945
G1 X33.893 Y24.984 E524.59849
G1 X32.62 Y24.984 E524.67963
G1 X98.526 Y90.889 E530.61999
G1 X98.5 Y91.088 E530.63278
G1 X98.444 Y91.38 E530.65173
G1 X98.366 Y91.678 E530.67136
G1 X98.286 Y91.922 E530.68773
G1 X31.348 Y24.984 E536.72115
G1 X30.075 Y24.984 E536.80229
G1 X97.875 Y92.784 E542.91341
G1 X97.746 Y92.987 E542.92874
G1 X97.565 Y93.232 E542.94815
G1 X97.384 Y93.449 E542.96616
G1 X97.328 Y93.509 E542.97139
G1 X28.802 Y24.984 E549.1479
G1 X27.529 Y24.984 E549.22904
G1 X96.655 Y94.109 E555.45963
G1 X96.506 Y94.217 E555.47136
G1 X96.237 Y94.383 E555.49151
G1 X96.009 Y94.507 E555.50805
G1 X95.853 Y94.58 E555.51903
G1 X26.256 Y24.984 E561.79207
G1 X26.211 Y24.984 E561.79494
G1 X25.999 Y24.994 E561.80847
G1 X25.425 Y25.046 E561.8452
G1 X25.1 Y25.1 E561.8662
G1 X94.898 Y94.898 E568.15741
G1 X94.574 Y94.953 E568.17836
G1 X93.999 Y95.005 E568.21515
G1 X93.787 Y95.015 E568.22868
G1 X93.742 Y95.015 E568.23155
G1 X24.146 Y25.419 E574.50455
G1 X23.99 Y25.491 E574.5155
G1 X23.76 Y25.614 E574.53212
G1 X23.492 Y25.782 E574.55228
G1 X23.343 Y25.889 E574.56397
G1 X92.469 Y95.015 E580.79461
G1 X91.196 Y95.015 E580.87575
G1 X22.671 Y26.489 E587.05226
G1 X22.621 Y26.542 E587.05691
G1 X22.432 Y26.767 E587.07563
G1 X22.253 Y27.012 E587.09497
G1 X22.123 Y27.214 E587.11028
G1 X89.924 Y95.015 E593.22149
G1 X88.651 Y95.015 E593.30263
G1 X21.712 Y28.076 E599.33614
G1 X21.633 Y28.321 E599.35255
G1 X21.554 Y28.618 E599.37214
G1 X21.498 Y28.91 E599.39109
G1 X21.473 Y29.11 E599.40393
G1 X87.378 Y95.015 E605.34425
G1 X86.105 Y95.015 E605.42538
G1 X21.435 Y30.344 E611.25443
G1 X21.435 Y31.617 E611.33556
G1 X84.833 Y95.015 E617.04991
G1 X83.56 Y95.015 E617.13104
G1 X21.435 Y32.89 E622.73065
G1 X21.435 Y34.163 E622.81179
G1 X82.287 Y95.015 E628.29665
G1 X81.014 Y95.015 E628.37779
G1 X21.435 Y35.435 E633.74796
G1 X21.435 Y36.708 E633.82909
G1 X79.741 Y95.015 E639.08452
G1 X78.469 Y95.015 E639.16559
G1 X21.435 Y37.981 E644.30632
G1 X21.435 Y39.254 E644.38746
G1 X77.196 Y95.015 E649.41345
G1 X75.923 Y95.015 E649.49458
G1 X21.435 Y40.527 E654.40583
G1 X21.435 Y41.799 E654.4869
G1 X74.65 Y95.015 E659.28346
G1 X73.377 Y95.015 E659.36459
G1 X21.435 Y43.072 E664.0464
G1 X21.435 Y44.345 E664.12754
G1 X72.105 Y95.015 E668.69465
G1 X70.832 Y95.015 E668.77579
G1 X21.435 Y45.618 E673.22816
G1 X21.435 Y46.891 E673.3093
G1 X69.559 Y95.015 E677.64693
G1 X68.286 Y95.015 E677.72807
G1 X21.435 Y48.163 E681.951
G1 X21.435 Y49.436 E682.03214
G1 X67.013 Y95.015 E686.14033
G1 X65.741 Y95.015 E686.22141
G1 X21.435 Y50.709 E690.21491
G1 X21.435 Y51.982 E690.29604
G1 X64.468 Y95.015 E694.1748
G1 X63.195 Y95.015 E694.25593
G1 X21.435 Y53.255 E698.01995
G1 X21.435 Y54.527 E698.10102
G1 X61.922 Y95.015 E701.75034
G1 X60.649 Y95.015 E701.83148
G1 X21.435 Y55.8 E705.36606
G1 X21.435 Y57.073 E705.44719
G1 X59.377 Y95.015 E708.86708
G1 X58.104 Y95.015 E708.94821
G1 X21.435 Y58.346 E712.25335
G1 X21.435 Y59.619 E712.33449
G1 X56.831 Y95.015 E715.52489
G1 X55.558 Y95.015 E715.60602
G1 X21.435 Y60.891 E718.68173
G1 X21.435 Y62.164 E718.76286
G1 X54.286 Y95.015 E721.72387
G1 X53.013 Y95.015 E721.80501
G1 X21.435 Y63.437 E724.65128
G1 X21.435 Y64.71 E724.73241
G1 X51.74 Y95.015 E727.46394
G1 X50.467 Y95.015 E727.54507
G1 X21.435 Y65.982 E730.1619
G1 X21.435 Y67.255 E730.24304
G1 X49.194 Y95.015 E732.74512
G1 X47.922 Y95.015 E732.8262
G1 X21.435 Y68.528 E735.21359
G1 X21.435 Y69.801 E735.29472
G1 X46.649 Y95.015 E737.56737
G1 X45.376 Y95.015 E737.64851
G1 X21.435 Y71.074 E739.80642
G1 X21.435 Y72.346 E739.88749
G1 X44.103 Y95.015 E741.9307
G1 X42.83 Y95.015 E742.01184
G1 X21.435 Y73.619 E743.94031
G1 X21.435 Y74.892 E744.02145
G1 X41.558 Y95.015 E745.83522
G1 X40.285 Y95.015 E745.91636
G1 X21.435 Y76.165 E747.61539
G1 X21.435 Y77.438 E747.69653
G1 X39.012 Y95.015 E749.28082
G1 X37.739 Y95.015 E749.36196
G1 X21.435 Y78.71 E750.83156
G1 X21.435 Y79.983 E750.91269
G1 X36.466 Y95.015 E752.26755
G1 X35.194 Y95.015 E752.34862
G1 X21.435 Y81.256 E753.58878
G1 X21.435 Y82.529 E753.66991
G1 X33.921 Y95.015 E754.79533
G1 X32.648 Y95.015 E754.87647
G1 X21.435 Y83.802 E755.88715
G1 X21.435 Y85.074 E755.96822
G1 X31.375 Y95.015 E756.8642
G1 X30.102 Y95.015 E756.94533
G1 X21.435 Y86.347 E757.72657
G1 X21.435 Y87.62 E757.80771
G1 X28.83 Y95.015 E758.47425
G1 X27.557 Y95.015 E758.55539
G1 X21.435 Y88.893 E759.10719
G1 X21.435 Y90.166 E759.18832
G1 X26.284 Y95.015 E759.62539
G1 X26.158 Y95.015 E759.63342
G1 X26.032 Y95.011 E759.64145
G1 X25.649 Y94.987 E759.66591
G1 X25.36 Y94.951 E759.68447
G1 X25.069 Y94.895 E759.70336
G1 X24.827 Y94.831 E759.71931
G1 X21.615 Y91.619 E760.00883
G0 F7200 X21.706 Y91.909
G1 F1012.5 X21.804 Y92.16 E760.026
G1 X21.942 Y92.457 E760.04687
G1 X22.066 Y92.689 E760.06364
G1 X22.234 Y92.957 E760.0838
G1 X22.393 Y93.178 E760.10115
G1 X22.584 Y93.413 E760.12045
G1 X22.794 Y93.639 E760.14011
G1 X22.995 Y93.828 E760.1577
G1 X23.219 Y94.017 E760.17638
G1 X23.463 Y94.197 E760.1957
G1 X23.709 Y94.353 E760.21427
G1 X23.959 Y94.492 E760.2325
G1 X24.241 Y94.626 E760.2524
G1 X24.487 Y94.724 E760.26927
G1 X24.772 Y94.817 E760.28838
G1 X24.827 Y94.831 E760.292
G0 F600 X24.827 Y94.831 Z0.744
G0 F7200 X24.443 Y94.896
;TIME_ELAPSED:609.729288
;LAYER:-3
;TYPE:SUPPORT-INTERFACE
G1 F1350 X25.021 Y95.065 E760.31119
G1 X25.634 Y95.161 E760.33096
G1 X26.153 Y95.191 E760.34753
G1 X94.018 Y95.181 E762.51021
G1 X94.582 Y95.13 E762.52825
G1 X94.967 Y95.065 E762.5407
G1 X95.515 Y94.91 E762.55885
G1 X95.645 Y94.85 E762.56341
G1 X24.338 Y94.85 E764.83577
G0 F7200 X25.64 Y24.85
G1 F1350 X25.418 Y24.87 E764.84288
G1 X25.033 Y24.935 E764.85532
G1 X24.485 Y25.09 E764.87347
G1 X24.228 Y25.2 E764.88238
G1 X95.778 Y25.2 E767.16249
G1 X96.122 Y25.351 E767.17446
G1 X96.456 Y25.55 E767.18685
G1 X23.547 Y25.55 E769.51027
G1 X23.394 Y25.639 E769.51591
G1 X23.054 Y25.9 E769.52957
